X:1
T:The Soldier's Farewell
T:The Soldier's Farewell
T:Johanna Kinkel
C:Johanna Kinkel
%%score [ 1 2 3 4 ]
L:1/8
Q:1/4=50
M:3/4
K:Bb
V:1 treble nm="Soprano"
V:2 treble nm="Alto"
V:3 treble-8 nm="Tenor"
V:4 bass nm="Bass"
V:1
"^Andante" F | D F B3 B | B2 A3 F | F B !tenuto!e3 d | d2 c2 z B | F3/2 G/ _A3 A | _A2 G2 G2 | %7
w: How|can I bear to|leave thee! One|part- ing kiss I|give thee. And|then what e'er be-|falls me, I|
 G3/2 =A/ B3 B | B2 !fermata!A z F2 | F4 B2 | d4 B2 | B4 G2 | F4 B2 | e4 d2 | (d2 c2) B2 | B4 A2 | %16
w: go where hon- or|calls me. Fare-|well, fare-|well, my|own true|love. Fare-|well, fare-|well, _ my|own true|
 B4 z |] %17
w: love.|
V:2
 D | B, D D3 D | E2 E3 E | D D !tenuto!G3 F | F2 F2 z D | D3/2 D/ D3 D | E2 E2 F2 | =E3/2 E/ E3 E | %8
w: How|can I bear to|leave thee! One|part- ing kiss I|give thee. And|then what e'er be-|falls me, I|go where hon- or|
 _E2 !fermata!E z E2 | D4 D2 | F4 D2 | E4 E2 | D4 D2 | G4 F2 | =E4 E2 | _E4 E2 | D4 z |] %17
w: calls me. Fare-|well, fare-|well, my|own true|love. Fare-|well, fare-|well, my|own true|love.|
V:3
 F | F F F3 F | F2 F3 A | B B !tenuto!B3 B | B2 A2 z2 | B3/2 B/ B3 B | c2 B2 =B2 | c3/2 c/ c3 c | %8
w: How|can I bear to|leave thee! One|part- ing kiss I|give thee.|then what e'er be-|falls me, I|go where hon- or|
 c2 !fermata!c z A2 | B4 F2 | _A4 A2 | G4 B2 | B4 B2 | B4 =B2 | _B4 G2 | _G4 F2 | F4 z |] %17
w: calls me. Fare-|well, fare-|well, my|own true|love. Fare-|well, fare-|well, my|own true|love.|
V:4
 B,, | B,, B,, B,,3 B,, | C,2 C,3 F, | B,, B,, !tenuto!B,,3 B,, | F,2 F,2 z2 | %5
w: How|can I bear to|leave thee! One|part- ing kiss I|give thee.|
 B,,3/2 B,,/ B,,3 B,, | E,2 E,2 D,2 | C,3/2 C,/ G,3 G, | _G,2 !fermata!F, z C,2 | B,,4 B,,2 | %10
w: then what e'er be-|falls me, I|go where hon- or|calls me. Fare-|well, fare-|
 B,,4 B,,2 | E,4 E,2 | B,,4 B,,2 | E,4 G,2 | C,4 C,2 | C,4 F,,2 | B,,4 z |] %17
w: well, my|own true|love. Fare-|well, fare-|well, my|own true|love.|

